packages/core/src/svgs/tokens/mono/REEF.svg

<svg width="24" height="24" viewBox="0 0 24 24" fill="none" xmlns="http://www.w3.org/2000/svg">
<path d="M4.98586 11.557C5.00903 11.559 5.03234 11.559 5.05551 11.557H5.13014C5.44356 11.557 5.74205 11.4972 6.01566 11.3579C6.28819 11.2277 6.53705 11.0529 6.75195 10.8406C6.96586 10.6316 7.13003 10.3978 7.24943 10.1441C7.36883 9.88545 7.42853 9.63669 7.42853 9.39791C7.42853 9.22379 7.39868 9.05954 7.32903 8.90039C7.26622 8.74375 7.16533 8.60525 7.03552 8.49742C6.88302 8.37263 6.7071 8.27959 6.51813 8.22381C5.99238 8.09439 5.44352 8.09098 4.91621 8.21386C4.67742 8.27356 4.47345 8.35316 4.29933 8.44768C4.13019 8.54717 3.98591 8.65662 3.86651 8.78597C3.65092 9.0152 3.47294 9.27719 3.33918 9.56205C3.26953 9.69137 3.1949 9.80083 3.12028 9.90031C3.05064 9.99979 2.97104 10.0744 2.87652 10.1391C2.78697 10.1989 2.67752 10.2287 2.5432 10.2287C2.3641 10.2287 2.2248 10.1839 2.13526 10.0944C2.04087 9.98795 1.99256 9.84831 2.00093 9.70634C2.00093 9.55207 2.04074 9.38294 2.1253 9.19884C2.2224 9.00475 2.34448 8.82407 2.48847 8.66159C2.86466 8.25047 3.32203 7.92185 3.8317 7.69646C4.79043 7.26694 5.86406 7.16552 6.88626 7.40792C7.22456 7.50743 7.52306 7.64174 7.78174 7.83079C8.15534 8.09238 8.42912 8.47297 8.55836 8.91035C8.68758 9.34777 8.66459 9.81604 8.49316 10.2387C8.40361 10.4675 8.27923 10.6864 8.12502 10.8854C7.97079 11.0843 7.78672 11.2684 7.57778 11.4326C7.16408 11.7718 6.69437 12.0361 6.18978 12.2137C5.94104 12.3032 5.70722 12.363 5.47838 12.4077C5.56412 12.8175 5.7082 13.2129 5.90622 13.5818C6.01069 13.7708 6.13008 13.93 6.25943 14.0644C6.32151 14.1347 6.39816 14.1908 6.48407 14.2286C6.56998 14.2663 6.66307 14.285 6.75691 14.2832H6.83154C7.09521 14.2832 7.32903 14.2435 7.53301 14.1539C7.89881 14.0025 8.22049 13.7612 8.46828 13.4524C8.5827 13.3231 8.69712 13.2634 8.81155 13.2634C8.8457 13.2625 8.87968 13.2686 8.91135 13.2815C8.94303 13.2944 8.97171 13.3135 8.99562 13.338C9.04536 13.3877 9.07024 13.4574 9.07024 13.542C9.07024 13.6265 9.04536 13.726 8.99064 13.8354C8.94089 13.9449 8.85134 14.0594 8.72698 14.1787C8.40633 14.492 8.03662 14.7509 7.6325 14.9448C7.27928 15.1041 6.941 15.1837 6.6226 15.1837C6.3639 15.1837 6.12511 15.1091 5.90622 14.9598C5.68235 14.8105 5.48335 14.6116 5.30426 14.3628C5.12516 14.109 4.95602 13.8156 4.80676 13.4773C4.6625 13.139 4.53315 12.7809 4.41375 12.4077C4.34908 12.5569 4.2844 12.7311 4.21475 12.93C4.06761 13.3517 3.91002 13.7697 3.74214 14.1837C3.65756 14.3876 3.56305 14.5717 3.45858 14.7409C3.35411 14.9001 3.23967 15.0344 3.12028 15.1389C3.00088 15.2384 2.87154 15.2882 2.73224 15.2882C2.61782 15.2882 2.52329 15.2682 2.44868 15.2334C2.38408 15.2023 2.32781 15.1562 2.2845 15.0991C2.24389 15.0455 2.21353 14.9846 2.19496 14.92C2.15888 14.7742 2.16232 14.6213 2.20491 14.4773C2.22977 14.3926 2.25465 14.3131 2.29943 14.2385L3.89138 11.3132C4.03068 11.0645 4.16998 10.8307 4.30927 10.6018C4.44857 10.373 4.5829 10.169 4.71225 9.98993C4.84657 9.81581 4.97093 9.67651 5.08535 9.56704C5.20476 9.46257 5.31421 9.40778 5.40375 9.40778C5.4336 9.40778 5.46345 9.40778 5.49828 9.42276C5.5331 9.43274 5.56792 9.4476 5.59777 9.47255C5.62264 9.4924 5.64752 9.52723 5.6724 9.57204C5.69229 9.62172 5.70224 9.67152 5.70224 9.74117C5.70224 9.81081 5.68235 9.9053 5.64254 10.0297C5.45085 10.55 5.23164 11.0598 4.98586 11.557ZM11.7915 11.8853C11.7749 11.8837 11.7583 11.8837 11.7417 11.8853H11.692C11.5576 11.8853 11.4283 11.9102 11.309 11.9599C11.1895 12.0147 11.0801 12.0892 10.9806 12.1789C10.8811 12.2634 10.7915 12.363 10.712 12.4773C10.5251 12.7597 10.373 13.0637 10.2593 13.3827C10.6935 13.1351 11.1184 12.8713 11.5328 12.5918C11.692 12.4923 11.8064 12.3928 11.8662 12.3082C11.9199 12.2412 11.9528 12.1599 11.9607 12.0744C11.9607 12.0246 11.9407 11.9749 11.9059 11.9451C11.8752 11.9133 11.8351 11.8923 11.7915 11.8853ZM11.9855 11.1391C12.2841 11.1391 12.5079 11.2138 12.6571 11.3579C12.8064 11.5022 12.8761 11.7013 12.8761 11.9549C12.8761 12.1042 12.8412 12.2684 12.7616 12.4326C12.682 12.6017 12.5427 12.7709 12.3487 12.94C12.1496 13.1141 11.891 13.2882 11.5626 13.4674C11.2393 13.6465 10.8313 13.8206 10.3388 14.0046C10.3587 14.1042 10.4134 14.1887 10.508 14.2533C10.6025 14.3081 10.7268 14.338 10.8811 14.338C11.0452 14.338 11.2244 14.3131 11.4135 14.2683C11.6024 14.2185 11.7915 14.1539 11.9755 14.0792C12.4557 13.8869 12.917 13.6504 13.3536 13.3729C13.445 13.3187 13.5397 13.2705 13.6372 13.2286L13.7118 13.2236C13.7565 13.2236 13.7914 13.2336 13.8212 13.2584C13.8511 13.2733 13.871 13.2982 13.8908 13.3281C13.9108 13.3529 13.9257 13.3777 13.9357 13.4126L13.9456 13.4872C13.9456 13.522 13.9456 13.5618 13.9357 13.6066C13.9203 13.6626 13.8913 13.7139 13.8511 13.7559C13.4987 14.0551 13.1151 14.3152 12.7068 14.5319C12.2535 14.781 11.7727 14.9763 11.2742 15.1141C11.0154 15.1837 10.7617 15.2136 10.508 15.2136C10.2891 15.2136 10.1 15.1737 9.92588 15.0891C9.76046 15.0072 9.61362 14.892 9.49464 14.7507C9.37563 14.6096 9.28705 14.4453 9.23441 14.2683C9.10878 13.916 9.10878 13.5311 9.23441 13.1788C9.29411 12.9947 9.38367 12.8057 9.49812 12.6166C9.75396 12.2088 10.093 11.8596 10.493 11.5918C10.9316 11.2898 11.4532 11.1316 11.9855 11.1391ZM15.6022 11.8853C15.5857 11.8837 15.569 11.8837 15.5525 11.8853H15.5027C15.3684 11.8853 15.2391 11.9102 15.1197 11.9599C15.0003 12.0147 14.8909 12.0892 14.7914 12.1789C14.6918 12.2634 14.6023 12.363 14.5227 12.4773C14.336 12.7598 14.1839 13.0639 14.07 13.3827C14.5042 13.135 14.9291 12.8712 15.3436 12.5918C15.5027 12.4923 15.6172 12.3928 15.6769 12.3082C15.7306 12.2412 15.7636 12.1599 15.7713 12.0744C15.7713 12.0246 15.7515 11.9749 15.7167 11.9451C15.686 11.9133 15.6459 11.8923 15.6022 11.8853ZM15.7963 11.1391C16.0947 11.1391 16.3187 11.2138 16.4678 11.3579C16.6171 11.5022 16.6918 11.7013 16.6918 11.9549C16.6918 12.1042 16.6519 12.2684 16.5723 12.4326C16.4928 12.6017 16.3535 12.7709 16.1594 12.94C15.9604 13.1141 15.7017 13.2882 15.3734 13.4674C15.05 13.6465 14.6421 13.8206 14.1496 14.0046C14.1694 14.1042 14.2242 14.1887 14.3187 14.2533C14.4132 14.3081 14.5376 14.338 14.6918 14.338C14.8561 14.338 15.0352 14.3131 15.2241 14.2683C15.4132 14.2185 15.6022 14.1539 15.7863 14.0792C16.2665 13.8869 16.7279 13.6504 17.1643 13.3729C17.2557 13.3187 17.3504 13.2705 17.4479 13.2286L17.5225 13.2236C17.5673 13.2236 17.6022 13.2336 17.632 13.2584C17.6618 13.2733 17.6818 13.2982 17.7017 13.3281C17.7215 13.3529 17.7365 13.3777 17.7465 13.4126L17.7563 13.4872C17.7563 13.522 17.7563 13.5618 17.7465 13.6066C17.7311 13.6626 17.702 13.7139 17.6618 13.7559C17.3096 14.0552 16.926 14.3154 16.5176 14.5319C16.0643 14.781 15.5834 14.9764 15.0848 15.1141C14.8262 15.1837 14.5725 15.2136 14.3187 15.2136C14.0998 15.2136 13.9108 15.1737 13.7417 15.0891C13.5751 15.008 13.4271 14.8932 13.3072 14.7518C13.1874 14.6105 13.0981 14.4459 13.0452 14.2683C12.9191 13.916 12.9191 13.531 13.0452 13.1788C13.2934 12.5355 13.7304 11.9822 14.2989 11.5918C14.5128 11.4575 14.7416 11.3431 14.9904 11.2634C15.2391 11.1789 15.5127 11.1391 15.7963 11.1391ZM20.9553 11.9301C20.6138 11.944 20.2721 11.9523 19.9304 11.9549H18.9901L18.6269 12.6764L18.2588 13.4425C17.8303 14.3467 17.4008 15.2505 16.9703 16.1538C16.9305 16.2333 16.8808 16.313 16.8211 16.3776C16.7714 16.4522 16.7067 16.5119 16.6371 16.5617C16.517 16.6525 16.3739 16.7076 16.2241 16.7209C16.1415 16.7224 16.0604 16.6998 15.9903 16.6562C15.9206 16.6115 15.8908 16.5419 15.8908 16.4522C15.8908 16.4026 15.9008 16.3478 15.9206 16.2831C15.9406 16.2235 15.9704 16.1488 16.0151 16.0642L17.9653 11.9401H17.6818C17.055 11.9401 17.05 11.2486 17.7017 11.2486H18.3385C18.5971 10.7311 18.806 10.3928 19.0598 10.0546C19.2816 9.75881 19.5389 9.49148 19.8259 9.25862C20.2222 8.93011 20.7192 8.74743 21.2339 8.74119C21.3336 8.7415 21.4321 8.76294 21.523 8.80409C21.6139 8.84525 21.6951 8.9052 21.7611 8.98003C21.8357 9.05954 21.8905 9.15914 21.9352 9.27847C21.98 9.40291 22 9.5422 22 9.70634C22 9.85562 21.98 10.0297 21.9352 10.2187C21.9255 10.2668 21.9032 10.3114 21.8706 10.348C21.8058 10.409 21.7273 10.4533 21.6418 10.4775C21.602 10.4873 21.5671 10.4873 21.5423 10.4873C21.4729 10.4873 21.4045 10.4703 21.3432 10.4376C21.3133 10.4234 21.2878 10.4009 21.2702 10.3726C21.2526 10.3443 21.2434 10.3117 21.2437 10.2784C21.2432 10.195 21.2498 10.1118 21.2637 10.0297C21.2637 9.88046 21.2339 9.771 21.1791 9.70634C21.152 9.67349 21.1178 9.64737 21.0789 9.63008C21.04 9.6129 20.9978 9.60489 20.9553 9.60686C20.8458 9.60686 20.7115 9.65654 20.5572 9.75602C20.408 9.85562 20.2588 9.97994 20.1095 10.1441C19.9456 10.3176 19.796 10.5039 19.6618 10.7013C19.5225 10.9052 19.4627 11.0297 19.3682 11.2486H20.6319L20.9453 11.2535C21.0448 11.2535 21.1244 11.2684 21.199 11.2883C21.5273 11.3629 21.4875 11.766 21.1891 11.8853C21.1294 11.9102 21.0498 11.9201 20.9503 11.9301H20.9553Z" fill="white"/>
<path d="M18.8609 15.5717C19.2648 15.5717 19.5923 15.2444 19.5923 14.8404C19.5923 14.4366 19.2648 14.1091 18.8609 14.1091C18.457 14.1091 18.1296 14.4366 18.1296 14.8404C18.1296 15.2444 18.457 15.5717 18.8609 15.5717Z" fill="white"/>
</svg>

<svg xmlns="http://www.w3.org/2000/svg" width="24" height="24" fill="none" viewBox="0 0 24 24">
    <path fill="#fff" d="M4.986 11.557a.4.4 0 0 0 .07 0h.074c.314 0 .612-.06.886-.2a2.7 2.7 0 0 0 .736-.516q.32-.316.497-.697.18-.388.18-.746c0-.174-.03-.338-.1-.498a1 1 0 0 0-.293-.403 1.5 1.5 0 0 0-.518-.273 3.44 3.44 0 0 0-1.602-.01q-.357.091-.617.234c-.169.1-.313.209-.432.338q-.326.347-.528.776c-.07.13-.144.239-.219.338a1 1 0 0 1-.243.24.6.6 0 0 1-.334.089c-.179 0-.318-.045-.408-.135a.54.54 0 0 1-.134-.388Q2 9.475 2.125 9.2a2.5 2.5 0 0 1 .363-.537 4 4 0 0 1 1.344-.966 4.78 4.78 0 0 1 3.054-.288c.339.1.637.234.896.423a2.015 2.015 0 0 1 .711 2.408c-.09.228-.214.447-.368.646a3.2 3.2 0 0 1-.547.548 4.8 4.8 0 0 1-2.1.975c.086.41.23.805.428 1.174q.159.282.353.482a.65.65 0 0 0 .498.22h.075c.263 0 .497-.04.701-.13.366-.152.687-.393.935-.702.115-.129.23-.189.344-.189a.25.25 0 0 1 .184.075q.075.076.074.204a.7.7 0 0 1-.08.293q-.076.165-.263.344c-.32.313-.69.572-1.094.766q-.532.24-1.01.239-.39 0-.717-.224a2.4 2.4 0 0 1-.602-.597 5 5 0 0 1-.497-.886 12 12 0 0 1-.393-1.07q-.096.225-.2.523-.22.633-.472 1.254-.127.305-.283.557-.159.24-.339.398-.179.15-.388.15a.7.7 0 0 1-.283-.056.45.45 0 0 1-.164-.134.6.6 0 0 1-.09-.179.85.85 0 0 1 .01-.443 1 1 0 0 1 .094-.239l1.592-2.925c.14-.248.279-.482.418-.711q.21-.343.403-.612.202-.26.373-.423c.12-.104.23-.16.319-.16.03 0 .06 0 .094.016q.054.014.1.05.038.03.074.099c.02.05.03.1.03.17q0 .102-.06.288-.287.78-.656 1.527m6.805.328a.3.3 0 0 0-.05 0h-.049a1 1 0 0 0-.383.075q-.18.084-.328.219-.15.127-.269.298a4.2 4.2 0 0 0-.453.906q.652-.372 1.274-.791c.159-.1.273-.2.333-.284a.44.44 0 0 0 .095-.234c0-.05-.02-.1-.055-.129a.2.2 0 0 0-.115-.06m.194-.746q.45.001.672.219c.15.144.22.343.22.597a1.1 1.1 0 0 1-.115.478q-.122.253-.413.507c-.2.174-.458.348-.786.527a9 9 0 0 1-1.224.538q.028.151.169.248a.74.74 0 0 0 .373.085q.247-.001.533-.07.283-.076.562-.189a8.4 8.4 0 0 0 1.378-.706 3 3 0 0 1 .283-.144l.075-.005q.066-.001.11.034c.03.015.049.04.069.07a.2.2 0 0 1 .045.085l.01.074c0 .035 0 .075-.01.12a.35.35 0 0 1-.085.149q-.53.451-1.144.776a6.7 6.7 0 0 1-1.433.582c-.259.07-.512.1-.766.1-.219 0-.408-.04-.582-.125a1.34 1.34 0 0 1-.692-.82 1.62 1.62 0 0 1 0-1.09q.091-.277.264-.562c.256-.408.595-.757.995-1.025.439-.302.96-.46 1.492-.453m3.617.746a.3.3 0 0 0-.05 0h-.05a1 1 0 0 0-.382.075q-.18.084-.329.219-.15.127-.268.298a4.2 4.2 0 0 0-.453.906q.652-.372 1.274-.791c.159-.1.273-.2.333-.284a.44.44 0 0 0 .094-.234c0-.05-.02-.1-.054-.129a.2.2 0 0 0-.115-.06m.194-.746q.449.001.672.219.224.216.224.597c0 .15-.04.313-.12.478a1.6 1.6 0 0 1-.413.507 4.4 4.4 0 0 1-.786.527c-.323.18-.73.354-1.223.538q.028.151.169.248a.74.74 0 0 0 .373.085q.247-.001.532-.07.286-.076.562-.189a8.4 8.4 0 0 0 1.378-.706 3 3 0 0 1 .284-.144l.075-.005q.066-.001.109.034c.03.015.05.04.07.07a.2.2 0 0 1 .044.085l.01.074c0 .035 0 .075-.01.12a.35.35 0 0 1-.084.149c-.352.3-.736.56-1.144.776a6.7 6.7 0 0 1-1.433.582c-.259.07-.513.1-.766.1-.22 0-.408-.04-.577-.125a1.34 1.34 0 0 1-.697-.82 1.62 1.62 0 0 1 0-1.09 3.4 3.4 0 0 1 1.254-1.587 3 3 0 0 1 .691-.329 2.5 2.5 0 0 1 .806-.124m5.16.791q-.513.02-1.026.025h-.94l-.363.721-.368.767q-.643 1.356-1.289 2.71c-.04.08-.09.16-.149.225a.7.7 0 0 1-.184.184.8.8 0 0 1-.413.159.43.43 0 0 1-.234-.065c-.07-.044-.1-.114-.1-.204q0-.073.03-.169.029-.09.095-.219l1.95-4.124h-.283c-.627 0-.632-.691.02-.691h.636c.26-.518.468-.856.722-1.194.222-.296.479-.564.766-.796a2.25 2.25 0 0 1 1.408-.518.7.7 0 0 1 .527.239c.075.08.13.18.174.298.045.125.065.264.065.428 0 .15-.02.324-.065.513a.3.3 0 0 1-.064.129.55.55 0 0 1-.23.13c-.039.01-.074.01-.099.01a.4.4 0 0 1-.199-.05.17.17 0 0 1-.1-.16q0-.125.02-.248-.002-.226-.084-.324a.27.27 0 0 0-.224-.1q-.165 0-.398.15c-.149.1-.298.224-.447.388q-.247.261-.448.557c-.14.204-.2.329-.294.548h1.264l.313.005c.1 0 .18.014.254.034.328.075.288.478-.01.597a1 1 0 0 1-.239.045z"/>
    <path fill="#fff" d="M18.86 15.572a.731.731 0 1 0 .001-1.463.731.731 0 0 0 0 1.463"/>
</svg>
